img/svg/net/webpositive.svg

<?xml version="1.0" encoding="iso-8859-1"?>
<!-- Generator: Adobe Illustrator 21.0.2, SVG Export Plug-In . SVG Version: 6.00 Build 0)  -->
<svg version="1.1" id="&#x56FE;&#x5C42;_1" xmlns="http://www.w3.org/2000/svg" xmlns:xlink="http://www.w3.org/1999/xlink" x="0px"
	 y="0px" viewBox="0 0 16 16" style="enable-background:new 0 0 16 16;" xml:space="preserve">
<path d="M7.743,7.36C7.227,7.811,6.779,8.212,6.32,8.598C6.129,8.759,6.158,8.969,6.181,9.163c0.077,0.647,0.17,1.292,0.267,1.937
	c0.074,0.488-0.099,0.852-0.463,0.934c-0.466,0.104-0.822-0.115-0.894-0.64c-0.127-0.926-0.207-1.859-0.296-2.79
	C4.763,8.266,4.909,8.04,5.187,7.826c0.447-0.344,0.838-0.767,1.261-1.164C5.777,6.318,5.126,6.003,4.496,5.649
	C4.254,5.513,4.142,5.622,3.99,5.773C3.434,6.325,2.869,6.869,2.309,7.417c-0.2,0.196-0.428,0.307-0.703,0.215
	c-0.359-0.12-0.43-0.556-0.139-0.865c0.756-0.803,1.561-1.552,2.384-2.281C3.978,4.373,4.094,4.247,4.25,4.093
	C3.788,3.921,3.371,3.73,3.252,3.234C3.195,2.998,3.18,2.742,3.291,2.497C3.526,1.98,4.076,1.716,4.628,1.869
	C5.187,2.024,5.432,2.6,5.29,3.481c0.546-0.208,1.084-0.388,1.601-0.617C7.43,2.625,7.522,1.972,7.92,1.594
	c0.076-0.072,0.124-0.175,0.19-0.258C8.33,1.061,8.575,0.853,8.917,1.134c0.34,0.279,0.17,0.592,0,0.867
	C8.642,2.445,8.346,2.877,8.043,3.302C7.695,3.79,7.09,3.794,6.591,4.122c0.546,0.294,1.074,0.616,1.631,0.869
	c0.652,0.297,0.972,0.764,0.906,1.503C9.115,6.636,9.126,6.78,9.126,6.922c0,1.102-0.004,1.115,0.992,1.482
	c0.288,0.106,0.553,0.244,0.817,0.391c0.375,0.209,0.531,0.616,0.372,0.935c-0.159,0.319-0.577,0.451-0.937,0.289
	C9.697,9.716,9.031,9.392,8.349,9.11c-0.443-0.183-0.65-0.477-0.609-0.97C7.758,7.911,7.743,7.678,7.743,7.36z M13.616,10.339
	c0.313-0.06,0.441-0.292,0.359-0.529c-0.096-0.276-0.36-0.395-0.667-0.249c-0.341,0.161-0.685,0.315-1.028,0.471
	c-2.485,1.13-5.021,2.124-7.582,3.05c-1.101,0.398-2.213,0.765-3.32,1.144c-0.26,0.089-0.443,0.24-0.357,0.549
	c0.086,0.307,0.332,0.234,0.529,0.167c1.55-0.522,3.1-1.042,4.642-1.586c1.815-0.64,3.617-1.319,5.38-2.102
	c0.185-0.082,0.341-0.097,0.52-0.017c0.372,0.165,0.749,0.316,1.118,0.488c0.232,0.108,0.458,0.226,0.643-0.057
	c0.203-0.31-0.114-0.412-0.25-0.564c-0.158-0.177-0.421-0.248-0.51-0.516C13.272,10.499,13.436,10.374,13.616,10.339z"/>
</svg>

<svg xmlns="http://www.w3.org/2000/svg" viewBox="0 0 16 16"><title>webpositive</title><path d="M7.74,7.36c-.52.45-1,.85-1.42,1.24a.56.56,0,0,0-.14.57c.08.65.17,1.29.27,1.94.07.49-.1.85-.46.93a.68.68,0,0,1-.89-.64C5,10.47,4.88,9.54,4.8,8.6a.82.82,0,0,1,.39-.78c.45-.34.84-.77,1.26-1.16-.67-.34-1.32-.66-2-1-.24-.14-.35,0-.51.12L2.31,7.42a.66.66,0,0,1-.7.21.51.51,0,0,1-.14-.86C2.22,6,3,5.22,3.85,4.49c.13-.11.24-.24.4-.39-.46-.17-.88-.36-1-.86A1.1,1.1,0,0,1,4.63,1.87c.56.15.8.73.66,1.61.55-.21,1.08-.39,1.6-.62s.63-.89,1-1.27a2.4,2.4,0,0,0,.19-.26c.22-.28.46-.48.81-.2s.17.59,0,.87c-.28.44-.57.88-.87,1.3s-1,.49-1.45.82c.55.29,1.07.62,1.63.87a1.37,1.37,0,0,1,.91,1.5c0,.14,0,.28,0,.43,0,1.1,0,1.12,1,1.48a5.78,5.78,0,0,1,.82.39.73.73,0,0,1,.37.93.71.71,0,0,1-.94.29c-.67-.3-1.34-.63-2-.91a.87.87,0,0,1-.61-1C7.76,7.91,7.74,7.68,7.74,7.36Z"/><path d="M13.09,10.59c.09.27.35.34.51.52s.45.25.25.56-.41.17-.64.06-.75-.32-1.12-.49a.59.59,0,0,0-.52,0C9.81,12,8,12.71,6.19,13.35c-1.54.54-3.09,1.06-4.64,1.59-.2.07-.44.14-.53-.17s.1-.46.36-.55c1.11-.38,2.22-.75,3.32-1.14,2.56-.93,5.1-1.92,7.58-3l1-.47a.45.45,0,0,1,.67.25.4.4,0,0,1-.36.53A2.28,2.28,0,0,0,13.09,10.59Z"/></svg>
